X:1
T:A sound of angels - Tye
T:James Gibb editions
T:#
%%score [ 1 2 3 4 ]
L:1/8
Q:1/4=100
M:4/4
K:G
V:1 treble nm="Soprano" snm="S"
V:2 treble nm="Alto" snm="A"
V:3 treble-8 nm="Tenor" snm="T"
V:4 bass nm="Bass" snm="B"
V:1
"^A sound of angels""^Christopher Tye\n(c.1500-1573)" D2 | G3 A (Bc) d2 | d2 ^c2 d2 A2 | %3
w: A|sound of an * gels|from a- far Fills|
 c2 B2 G2 G2 | F4 z2 A2 | B3 A G2 (FG) |[M:4/4] (AB) (cA) B2 B2 | AG G4 F2 | G4 z2 B2 | %9
w: all the qui- et|air, And|Ah! how full of *|glad\- * ness * are The|ti- dings that they|bear. The|
 (AG) (AB) c2 c2 | (BA) (Bc) (de) f2 | e2 d2 d2 ^c2 | d4 z2 d2 | d2 d2 B4 | z2 B2 e3 d | %15
w: shep\- * herds * run to|Beth\- * lem * town * To|see a won- drous|sight; The|Lord of Lords,|the Lord of|
 c2 B2 (^cd) e2 | A4 z2 d2 | d2 =c2 d3 c | B4"^." z2 B2 | (AG) (AB) c2 c2 | (BA) (Bc) (de) f2 | %21
w: Lords to earth * come|down Is|born for men to-|night. Yea,|Christ * is * born, our|heav'n\- * ly * king, * Sal-|
 e2 d2 d2 ^c2 | d4 z2 d2 | d2 d2 B4 | z2 B2 e3 d | c2 B2 (^cd) e2 | %26
w: va- tion now is|nigh, So|all man- kind,|so all man-|kind with an\- * gels|
[Q:1/4=97] A4[Q:1/4=95] z2[Q:1/4=93] d2 |[Q:1/4=91] d2[Q:1/4=89] =c2[Q:1/4=87] d3[Q:1/4=85] c | %28
w: sing Glo-|ry to God on|
[Q:1/4=85] B8 |] %29
w: high.|
V:2
 B,2 | D2 D2 G2 F2 | A3 G (FE) F2 | E2 D2 D2 ^C2 | D4 z2 F2 | G3 E D2 D2 |[M:4/4] E3 F G3 F | %7
w: A|sound of an- gels|from a- far * Fills|all the qui- et|air, And|Ah! how full of|glad- ness are The|
 (ED) (CB,) D3 C | B,4 z2 G2 | F2 F2 (ED) (EF) | G2 G2 F2 A2 | A2 A2 G2 A2 | F8 | z4 z2 G2 | %14
w: ti\- * dings * that they|bear. The|shep- herds run * to *|Beth- lem town To|see a won- drous|sight;|The|
 G2 G2 E4 | z2 E2 A3 G | F2 E2 (FG) A2 | D2 G2 G2 F2 | G4 z2 G2 | F2 F2 (ED) (EF) | G2 G2 F2 A2 | %21
w: Lord of Lords,|the Lord of|Lords to earth * corne|down Is born to-|night. Yea,|Christ is born, * our *|heav'n- ly king, Sal-|
 A2 A2 G2 A2 | F8 | z4 z2 G2 | G2 G2 E4 | z2 E2 A3 G | F2 E2 (FG) A2 | D2 G2 G2 F2 | G8 |] %29
w: va- tion now is|nigh,|So|all man- kind,|so all man-|kind with an\- * gels|sing to God on|high.|
V:3
 G2 | B3 A e2 d2 | f2 e2 d2 d2 | G3 G G2 G2 | A4 z2 d2 | d3 c B2 (AB) | %6
w: A|sound of an- gels|from a- far Fills|all the qui- et|air, And|Ah! how full of *|
[M:4/4][K:treble-8] c2 c2 d2 d2 | (cB) (AG) A2 A2 | G4 z2 d2 | d2 d2 c2 A2 | G3 G A3 B | %11
w: glad- ness are The|ti\- * dings * that they|bear. The|shep- herds run to|Beth- lem town To|
 ^c2 d2 e2 e2 | d2 d2 d2 d2 | B4 z2 B2 | e3 d c2 B2 | (cd) e2 (AB) (^cB) | d2 ^c2 d2 A2 | %17
w: see a ~won- drous|sight; The Lord of|Lords, the|Lord of Lords to|earth * come down, * to *|earth come down Is|
 B2 (GA) (Bc) A2 | G4 z2 d2 | d2 d2 c2 A2 | G3 G A3 B | ^c2 d2 e2 e2 | d2 d2 d2 d2 | B4 z2 B2 | %24
w: born for * men * to-|night. Yea,|Christ is born, our|heav'n- ly king, Sal-|va- tion now is|nigh, So all man-|kind, so|
 e3 d c2 B2 | (cd) e2 (AB) (^cB) | d2 ^c2 d2 A2 | B2 (GA) (Bc) A2 | G8 |] %29
w: all man- kind with|an\- * gels sing, * with *|an- gels sing Glo-|ry to * God * on|high.|
V:4
 G,2 | G,3 F, E,2 B,2 | A,2 A,2 D,2 D,2 | E,2 G,2 E,2 E,2 | D,4 z2 D,2 | G,,3 A,, (B,,C,) D,2 | %6
w: A|sound of an- gels|from a- far Fills|all the qui- et|air. And|Ah! how full * of|
[M:4/4] (C,B,,) A,,2 G,,2 B,,2 | C,2 E,2 D,2 D,2 | G,,4 z2 G,,2 | D,2 D,2 (A,,B,,) (C,D,) | %10
w: glad\- * ness are The|ti- dings that they|bear. The|shep- herds run * to *|
 E,2 E,2 D,2 D,2 | A,2 F,2 E,2 A,2 | D,8 | z2 G,2 G,2 G,2 | E,4 z2 E,2 | A,3 G, F,2 E,2 | %16
w: Beth- lem town To|see a won- drous|sight;|The Lord of|Lords, the|Lord of Lords to|
 (F,G,) A,2 D,2 F,2 | G,2 E,2 D,2 D,2 | G,,4 z2 G,,2 | D,2 D,2 (A,,B,,) (C,D,) | E,2 E,2 D,2 D,2 | %21
w: earth * come down Is|born for men to-|night. Yea,|Christ is born, * our *|heav'n- ly king, Sal-|
 A,2 F,2 E,2 A,2 | D,8 | z2 G,2 G,2 G,2 | E,4 z2 E,2 | A,3 G, F,2 E,2 | (F,G,) A,2 D,2 F,2 | %27
w: va- tion now is|nigh,|So all man-|kind, so|all man- kind with|an\- * gels sing Glo-|
 G,2 E,2 D,2 D,2 |"^1." G,,8 |] %29
w: ry to God on|high.|

